projects/samara/images/icons/best-price.svg

<svg width="83" height="83" viewBox="0 0 83 83" fill="none" xmlns="http://www.w3.org/2000/svg">
<g clip-path="url(#clip0_72_65)">
<path fill-rule="evenodd" clip-rule="evenodd" d="M3.71319 81.3982C1.66866 81.3982 6.10352e-05 79.7291 6.10352e-05 77.6846V48.3735C6.10352e-05 46.329 1.66234 44.6599 3.71319 44.6599H10.7645V63.0325C10.7645 64.0907 12.3728 64.0902 12.3728 63.0325V44.6599H19.2432C21.2935 44.6599 22.95 46.3183 22.95 48.3735V77.6846C22.95 79.7291 21.2877 81.3982 19.2368 81.3982H3.71319ZM15.4162 77.3359C11.2931 77.3359 11.3009 71.0754 15.4162 71.0754C19.5316 71.0754 19.5393 77.3359 15.4162 77.3359Z" fill="white"/>
<path fill-rule="evenodd" clip-rule="evenodd" d="M51.537 79.072H25.5509C25.1681 79.072 22.3552 77.611 21.8042 77.3426C21.5294 77.2083 21.3485 76.9272 21.3485 76.6184V49.365C21.3485 47.0116 31.8814 49.0367 31.5162 30.4837C31.4827 28.7743 31.5498 26.8708 32.8366 25.9725C33.6342 25.4161 34.7333 25.4025 36.0877 25.9321C39.0101 27.0784 41.2015 31.5225 41.289 36.4889C41.3629 40.4034 41.1883 44.5386 38.5208 48.5606H58.4414C58.6364 48.5606 58.7954 48.6155 58.9185 48.7045C60.7918 49.1972 62.1745 50.9032 62.1745 52.9312C62.1745 54.667 61.1614 56.1673 59.6971 56.872C62.1745 59.1913 61.1678 63.3314 57.922 64.2642C60.2943 66.886 58.7118 71.1273 55.1888 71.5353C57.725 74.5739 55.1008 79.0924 51.732 79.0924C51.6624 79.0924 51.5973 79.0851 51.537 79.072Z" fill="white"/>
<path d="M51.0457 44.2982V14.6672H60.5077C64.3257 14.6672 67.1062 15.4419 68.8492 16.9912C70.6198 18.5405 71.5052 20.6709 71.5052 23.3822C71.5052 24.9869 71.1455 26.4947 70.4262 27.9057C69.7068 29.3167 68.5033 30.451 66.8157 31.3087C65.1557 32.1664 62.887 32.5952 60.0097 32.5952H57.3122V44.2982H51.0457ZM47.7257 39.8577V35.8322H63.7032V39.8577H47.7257ZM47.7257 32.5952V27.4492H59.8852V32.5952H47.7257ZM59.3872 27.4492C60.5768 27.4492 61.6005 27.3247 62.4582 27.0757C63.3158 26.799 63.9798 26.3702 64.4502 25.7892C64.9205 25.2082 65.1557 24.475 65.1557 23.5897C65.1557 22.317 64.7545 21.3764 63.9522 20.7677C63.1498 20.1314 61.891 19.8132 60.1757 19.8132H57.3122V27.4492H59.3872Z" fill="white"/>
<path fill-rule="evenodd" clip-rule="evenodd" d="M65.392 51.182C63.4151 51.182 62.937 48.4016 64.8046 47.7485C73.5794 44.6778 79.4611 36.3504 79.4611 27.0586C79.4611 14.9684 69.6265 5.13384 57.5363 5.13384C47.4027 5.13384 38.6458 11.995 36.2385 21.8407C35.6846 24.107 32.2472 23.2598 32.7992 21.0023C35.5975 9.57257 45.7706 1.60162 57.5363 1.60162C71.5801 1.60162 83.0001 13.0216 83.0001 27.0654C83.0001 37.6931 76.4862 48.2183 65.9197 51.1129C65.749 51.1596 65.5695 51.1815 65.392 51.1815V51.182Z" fill="white"/>
</g>
<defs>
<clipPath id="clip0_72_65">
<rect width="83" height="83" fill="white"/>
</clipPath>
</defs>
</svg>

<svg width="83" height="83" fill="none" xmlns="http://www.w3.org/2000/svg"><g clip-path="url(#clip0_72_65)" fill="#fff"><path fill-rule="evenodd" clip-rule="evenodd" d="M3.713 81.398A3.721 3.721 0 010 77.685V48.373a3.717 3.717 0 013.713-3.713h7.051v18.373c0 1.058 1.609 1.057 1.609 0V44.66h6.87a3.706 3.706 0 013.707 3.714v29.31a3.717 3.717 0 01-3.713 3.714H3.713zm11.703-4.062c-4.123 0-4.115-6.26 0-6.26 4.116 0 4.123 6.26 0 6.26z"/><path fill-rule="evenodd" clip-rule="evenodd" d="M51.537 79.072H25.551c-.383 0-3.196-1.461-3.747-1.73a.81.81 0 01-.455-.724V49.365c0-2.353 10.532-.328 10.167-18.881-.033-1.71.034-3.613 1.32-4.512.798-.556 1.897-.57 3.252-.04 2.922 1.146 5.114 5.59 5.201 10.557.074 3.914-.1 8.05-2.768 12.072h19.92a.79.79 0 01.477.144 4.373 4.373 0 01.78 8.167c2.477 2.32 1.47 6.46-1.776 7.392 2.372 2.622.79 6.863-2.733 7.271 2.536 3.039-.088 7.557-3.457 7.557a.917.917 0 01-.195-.02z"/><path d="M51.046 44.298v-29.63h9.462c3.818 0 6.598.774 8.341 2.323 1.77 1.55 2.656 3.68 2.656 6.391a9.82 9.82 0 01-1.079 4.524c-.72 1.41-1.923 2.545-3.61 3.403-1.66.857-3.929 1.286-6.806 1.286h-2.698v11.703h-6.266zm-3.32-4.44v-4.026h15.977v4.026H47.726zm0-7.263V27.45h12.16v5.146h-12.16zm11.661-5.146c1.19 0 2.213-.124 3.071-.373.858-.277 1.522-.706 1.992-1.287.47-.58.706-1.314.706-2.2 0-1.272-.402-2.213-1.204-2.821-.802-.637-2.061-.955-3.776-.955h-2.864v7.636h2.075z"/><path fill-rule="evenodd" clip-rule="evenodd" d="M65.392 51.182c-1.977 0-2.455-2.78-.587-3.434 8.774-3.07 14.656-11.398 14.656-20.69 0-12.09-9.835-21.924-21.925-21.924A21.862 21.862 0 0036.24 21.84c-.554 2.266-3.992 1.419-3.44-.839a25.4 25.4 0 0124.737-19.4C71.58 1.602 83 13.022 83 27.065c0 10.628-6.514 21.153-17.08 24.048a2.01 2.01 0 01-.528.069z"/></g><defs><clipPath id="clip0_72_65"><path fill="#fff" d="M0 0h83v83H0z"/></clipPath></defs></svg>
